T: Captain Dunne's March
M: 4/4
L: 1/8
K: Dmaj
D2 D>D DFAF | G2 E>E E3 G | FABc dAFD | A2 AB AGFE |D2 D>D DFAF | G2 E>E E3 G | (3FGA F>D (3EFG E>C | D2 D>D D2 :|d2 d>d dAFD | G2 E>E E cd | e2 ef edcB | ABcB AGFE |D2 D>D DFAF | G2 E>E E2 G2 | (3FGA F>D (3EFG E>C | D2 D>D D2 :|
